!!!!SEGMENT: pl-cz--iii-692--001-005_volckmer-augustin--miserere-averte-faciem-tuam.krn
!!!cenid: 17xx:1152
!!!COM: Volckmer, Augustin
!!!COM-rismID: pe30020656
!!!CDT: 1755-~1820
!!!CNT:
!!!OPR: Miserere
!!!OTL: Averte faciem tuam
!!!OMV: 005
!!!PDT:
!!!AGN: Sacred
!!!SMS-siglum: PL-CZ
!!!SMS-shelfmark: III-692
!!!SMS-shelfwork: 001-005 M
!!!SMS-variant:
!!!SMS-altvar:
!!!NIFC-rismSourceID: 300001392
!!!NIFC-islandoraID: pl-cz:40420
!!!URL-pdf-islandora: https://repozytorium.nifc.pl/islandora/object/pl-cz%3A40420/datastream/PDF/view
!!!URL-scan:
!!!ONB-nifc: UWAGA: części Miserere: 1. Miserere, 2. Recitativo – Amplius lava me, 3. Aria – Quoniam, 4. Aria – Asperges me, 5. Averte faciem tuam, 6. Cor mundum, 7. Duetto – Docebo iniquos, 8. Arietta – Domine labia mea, 9. Recitativo – Quoniam si voluisses, 10. Aria – Sacrificium Deo, 11. Gloria Patri, 12. Sicut erat
!!!AIN: 1 alto 1 bass 2 cor 2 oboe 1 organ 1 soprn 1 tenor 1 viola 2 violn
!!!key: E-
**kern	**dynam	**kern	**dynam	**kern	**dynam	**kern	**dynam	**kern	**kern	**kern	**text	**kern	**text	**dynam	**kern	**dynam	**kern	**dynam	**kern	**dynam	**kern	**dynam
*	*	*group4	*	*group4	*	*group4	*	*group3	*group3	*group3	*	*group3	*	*	*group2	*	*group2	*	*group1	*	*group1	*
*part12	*part12	*part11	*part11	*part10	*part10	*part9	*part9	*part8	*part7	*part6	*part6	*part5	*part5	*part5	*part4	*part4	*part3	*part3	*part2	*part2	*part1	*part1
*staff12	*	*staff11	*	*staff10	*	*staff9	*	*staff8	*staff7	*staff6	*staff6	*staff5	*staff5	*staff5	*staff4	*	*staff3	*	*staff2	*	*staff1	*
*I"Organo.	*	*I"Viola obl=	*	*I"Violino Secondo.	*	*I"Violino Primo	*	*I"Basſo	*I"Tenore	*I"Alto .	*	*I"Canto	*	*	*I"Cornu Secondo in Dis	*	*I"Cornu Primo. in Dis	*	*I"Oboa Seconda	*	*I"Oboa Prima.	*
*I'org	*	*I'vla obl	*	*I'vl 2	*	*I'vl 1	*	*I'B	*I'T	*I'A	*	*I'S	*	*	*I'cor 2	*	*I'cor 1	*	*I'ob 2	*	*I'ob 1	*
*Iorgan	*	*Iviola	*	*Ivioln	*	*Ivioln	*	*Ibass	*Itenor	*Ialto	*	*Isoprn	*	*	*Icor	*	*Icor	*	*Ioboe	*	*Ioboe	*
*ICklav	*	*ICstr	*	*ICstr	*	*ICstr	*	*ICvox	*ICvox	*ICvox	*	*ICvox	*	*	*ICbras	*	*ICbras	*	*ICww	*	*ICww	*
*	*	*	*	*	*	*	*	*tacet	*tacet	*	*	*	*	*	*	*	*	*	*	*	*	*
*clefF4	*	*clefC3	*	*clefG2	*	*clefG2	*	*	*	*clefC3	*	*clefC1	*	*	*clefG2	*	*clefG2	*	*clefG2	*	*clefG2	*
*	*	*	*	*	*	*	*	*	*	*	*	*	*	*	*ITrd5c9	*	*ITrd5c9	*	*	*	*	*
*k[e-b-a-]	*	*k[e-a-b-]	*	*k[b-a-e-]	*	*k[a-b-e-]	*	*	*	*k[b-e-a-]	*	*k[b-e-a-]	*	*	*k[b-e-a-]	*	*k[b-e-a-]	*	*k[b-e-a-]	*	*k[b-e-a-]	*
*E-:	*	*E-:	*	*E-:	*	*E-:	*	*	*	*E-:	*	*E-:	*	*	*E-:	*	*E-:	*	*E-:	*	*E-:	*
*M3/2	*	*M3/2	*	*M3/2	*	*M3/2	*	*	*	*M3/2	*	*M3/2	*	*	*M3/2	*	*M3/2	*	*M3/2	*	*M3/2	*
*	*	*	*	*	*	*	*	*	*	*	*	*all\right	*	*	*	*	*	*	*	*	*	*
=1	=1	=1	=1	=1	=1	=1	=1	=1	=1	=1	=1	=1	=1	=1	=1	=1	=1	=1	=1	=1	=1	=1
*2\right	*	*2\right	*	*	*	*2\right	*	*	*	*2\right	*	*2\right	*	*	*	*	*	*	*	*	*	*
!LO:TX:a:t=adagio	!	!LO:TX:a:t=adagio	!	!LO:TX:a:t=adagio	!LO:DY:rj	!LO:TX:a:t=adagio	!LO:DY:t=pp&colon;	!LO:TX:a:i:t=Canto et Alto Solo\nDuetto Tacet	!LO:TX:a:i:t=Canto et Alto Solo\nDuetto Tacet	!	!	!LO:TX:a:i:t=Adag&colon;	!	!	!LO:TX:a:i:t=in Dis	!	!LO:TX:a:i:t=in Dis	!	!LO:TX:a:t=adagio	!	!LO:TX:a:t=adagio	!
2E-\	pp	2e-\	pp	2g/	pp	2b-\	pp	1.ryy	1.ryy	2g\	A-	2b-\	A-	.	1.r	pp	1.r	.	00.r	.	00.r	.
2E-\	.	2e-\	.	4f/	.	4a-/	.	.	.	4f\	-ver-	(4a-\	-ver-	.	.	.	.	.	.	.	.	.
.	.	.	.	4e-/	.	4g/	.	.	.	4e-\	.	4g\)	.	.	.	.	.	.	.	.	.	.
.	.	.	.	.	.	8qqff/	.	.	.	16qqb-/	.	8qqff/	.	.	.	.	.	.	.	.	.	.
4E-\	.	2e-\	.	4g/	.	4ee-\	.	.	.	(4g\	-te	4ee-\	-te	.	.	.	.	.	.	.	.	.
4A-\	.	.	.	4a-/	.	8dd\L	.	.	.	4a-\)	.	8dd\L	.	.	.	.	.	.	.	.	.	.
.	.	.	.	.	.	8cc\J	.	.	.	.	.	8cc\J	.	.	.	.	.	.	.	.	.	.
=2	=2	=2	=2	=2	=2	=2	=2	=2	=2	=2	=2	=2	=2	=2	=2	=2	=2	=2	=2	=2	=2	=2
*	*	*	*	*^	*	*^	*	*	*	*	*	*	*	*	*	*	*	*	*	*	*	*
!	!	!	!	!	!	!	!	!	!	!	!	!	!	!	!	!	!LO:TX:a:t=adagio	!	!	!	!	!	!	!
.	.	.	.	.	.	.	8qqdd/	.	.	.	.	.	.	8qqdd/	.	.	.	.	.	.	.	.	.	.
2A-\	.	2e-\	.	2a-/	2.ryy	.	4cc\	2.ryy	.	1.ryy	1.ryy	4.a-\	fa-	4cc\	fa-	.	2r	.	2r	.	.	.	.	.
.	.	.	.	.	.	.	8b-\L	.	.	.	.	.	.	8b-\L	-ci-	.	.	.	.	.	.	.	.	.
.	.	.	.	.	.	.	8cc\J	.	.	.	.	8a-\	-ci-	8cc\J	.	.	.	.	.	.	.	.	.	.
.	.	.	.	.	.	.	8qqcc/	.	.	.	.	.	.	8qqcc/	.	.	.	.	.	.	.	.	.	.
!	!	!	!	!	!	!	!	!	!	!	!	!	!	!	!	!	!LO:TX:a:i:t=Solo	!	!LO:TX:a:i:t=Solo	!	!	!	!	!
2E-\	.	2e-\	.	2g/	.	.	2b-\	.	.	.	.	2g\	-em	2b-\	-em	.	4r	.	4r	.	.	.	.	.
*	*	*	*	*	*cue	*	*	*cue	*	*	*	*	*	*	*	*	*	*	*	*	*	*	*	*
!	!	!	!	!LO:LB:g=original	!LO:TX:b:i:t=Cornu	!	!	!LO:TX:a:i:t=Corni	!	!	!	!	!	!	!	!	!	!	!	!	!	!	!	!
.	.	.	.	.	4b-/	.	.	4b-/	.	.	.	.	.	.	.	.	4B-/	.	4B-/	.	.	.	.	.
!LO:LB:g=original	!	!	!	!	!	!	!	!	!	!	!	!	!	!	!	!	!	!	!	!	!	!	!	!
2r	.	2r	.	2r	4g/	.	2r	4g/	.	.	.	2r	.	2r	.	.	4G/	.	4G/	.	.	.	.	.
.	.	.	.	.	4e-/	.	.	4e-/	.	.	.	.	.	.	.	.	4E-/	.	4E-/	.	.	.	.	.
.	.	.	.	.	.	.	.	.	.	.	.	.	.	.	.	.	.	.	.	.	.	.	.	.
*	*	*	*	*	*Xcue	*	*	*Xcue	*	*	*	*	*	*	*	*	*	*	*	*	*	*	*	*
*	*	*	*	*v	*v	*	*v	*v	*	*	*	*	*	*	*	*	*	*	*	*	*	*	*	*
=3	=3	=3	=3	=3	=3	=3	=3	=3	=3	=3	=3	=3	=3	=3	=3	=3	=3	=3	=3	=3	=3	=3
!	!	!	!	!	!	!	!	!	!	!	!	!	!	!	!LO:TX:a:t=2	!	!LO:TX:a:t=2	!	!	!	!	!
2A-\	.	2c/	.	4r	.	4r	.	1.ryy	1.ryy	4r	.	4r	.	.	0.r	.	0.r	.	.	.	.	.
.	.	.	.	8g/L	.	8b-/L	.	.	.	8g\L	fa-	(8b-\L	fa-	.	.	.	.	.	.	.	.	.
.	.	.	.	8f/J	.	8a-/J	.	.	.	8f\J	.	8a-\J)	.	.	.	.	.	.	.	.	.	.
2B-\	.	2B-/	.	4r	.	4r	.	.	.	4r	.	4r	.	.	.	.	.	.	.	.	.	.
.	.	.	.	8f/L	.	8a-/L	.	.	.	8f\L	-ci-	8a-\L	-ci-	.	.	.	.	.	.	.	.	.
.	.	.	.	8e-/J	.	8g/J	.	.	.	8e-\J	.	8g\J	.	.	.	.	.	.	.	.	.	.
!	!	!	!	!	!	!	!	!	!	!	!	!LO:LB:g=original	!	!	!	!	!	!	!	!	!	!
2BB-/	.	2B-/	.	4r	.	4r	.	.	.	4r	.	4r	.	.	.	.	.	.	.	.	.	.
.	.	.	.	8B-/L	.	8g/L	.	.	.	8B-/L	-em	8g/L	-em	.	.	.	.	.	.	.	.	.
.	.	.	.	8A-/J	.	8f/J	.	.	.	8A-/J	.	8f/J	.	.	.	.	.	.	.	.	.	.
!	!	!LO:LB:g=original	!	!	!	!	!	!	!	!LO:LB:g=original	!	!	!	!	!	!	!	!	!	!	!	!
=4	=4	=4	=4	=4	=4	=4	=4	=4	=4	=4	=4	=4	=4	=4	=4	=4	=4	=4	=4	=4	=4	=4
4E-\	.	4B-/	.	4G/	.	(8e-/L	.	1.ryy	1.ryy	(4G/	tu-	8e-/L	tu-	.	.	.	.	.	.	.	.	.
.	.	.	.	.	.	8d/	.	.	.	.	.	8d/	.	.	.	.	.	.	.	.	.	.
4BB-/	.	4B-/	.	4A-/	.	8f/	.	.	.	4A-/)	.	8f/	.	.	.	.	.	.	.	.	.	.
.	.	.	.	.	.	8d/J)	.	.	.	.	.	8d/J	.	.	.	.	.	.	.	.	.	.
2BB-/	.	2B-/	.	2A-/	.	2d/	.	.	.	(2A-/	-am	(2d/	-am	.	.	.	.	.	.	.	.	.
2E-\	.	2B-/	.	2G/	.	2e-/	.	.	.	2G/)	.	2e-/)	.	.	.	.	.	.	.	.	.	.
!	!	!	!	!	!	!LO:LB:g=original	!	!	!	!	!	!	!	!	!	!	!	!	!	!	!	!
=5	=5	=5	=5	=5	=5	=5	=5	=5	=5	=5	=5	=5	=5	=5	=5	=5	=5	=5	=5	=5	=5	=5
*	*	*	*	*	*	*	*	*	*	*	*	*	*	*	*2\right	*	*2\right	*	*2\right	*	*2\right	*
!	!	!LO:TX:a:i:t=Dolce	!	!LO:TX:a:i:t=Dolce	!	!LO:TX:a:i:t=dolce	!	!	!	!	!	!	!	!	!	!	!	!	!LO:TX:b:i:t=Dolce	!	!	!
2E-\	f	2e-\	f	2g/	f	2b-/	.	1.ryy	1.ryy	00.r	.	00.r	.	.	2g\	f	2.b-\	.	2gg\	.	2bb-\	f
2E-\	.	2e-\	.	4f/	.	4a-/	.	.	.	.	.	.	.	.	4f\	.	.	.	4ff\	.	4aa-\	.
.	.	.	.	4e-/	.	4g/	.	.	.	.	.	.	.	.	4.e-\	.	4a-\	.	4ee-\	.	4gg\	.
.	.	.	.	.	.	16qqff/	.	.	.	.	.	.	.	.	.	.	.	.	.	.	.	.
!	!	!	!	!	!	!	!	!	!	!	!	!	!	!	!	!	!	!	!LO:N:vis=8.	!	!	!
4E-\	.	2e-\	.	4g/	.	4ee-\	.	.	.	.	.	.	.	.	.	.	4g\	.	4.ee-\L	.	4.ccc\	.
.	.	.	.	.	.	.	.	.	.	.	.	.	.	.	4e-\	.	.	.	.	.	.	.
4A-\	.	.	.	4a-/	.	8dd\L	.	.	.	.	.	.	.	.	.	.	8.cc\L	.	.	.	.	.
!	!	!	!	!	!	!	!	!	!	!	!	!	!	!	!	!	!	!	!LO:N:vis=16	!	!	!
.	.	.	.	.	.	8cc\J	.	.	.	.	.	.	.	.	8a-\	.	.	.	8aa-\Jk	.	8ccc\	.
.	.	.	.	.	.	.	.	.	.	.	.	.	.	.	.	.	16cc\Jk	.	.	.	.	.
!	!	!	!	!	!	!	!	!	!	!	!	!	!	!	!	!	!LO:LB:g=original	!	!	!	!	!
=6	=6	=6	=6	=6	=6	=6	=6	=6	=6	=6	=6	=6	=6	=6	=6	=6	=6	=6	=6	=6	=6	=6
.	.	.	.	.	.	16qqdd/	.	.	.	.	.	.	.	.	.	.	.	.	.	.	8qqddd/	.
2A-\	.	2e-\	.	2a-/	.	4cc\	.	1.ryy	1.ryy	.	.	.	.	.	2a-\	.	2cc\	.	2aa-\	.	4ccc\	.
.	.	.	.	.	.	8b-\L	.	.	.	.	.	.	.	.	.	.	.	.	.	.	8bb-\L	.
.	.	.	.	.	.	8cc\J	.	.	.	.	.	.	.	.	.	.	.	.	.	.	8ccc\J	.
.	.	.	.	.	.	8qqcc/	.	.	.	.	.	.	.	.	.	.	.	.	.	.	8qqccc/	.
2E-\	.	2e-\	.	2g/	.	2b-\	.	.	.	.	.	.	.	.	4g\	.	4b-\	.	2gg\	.	2bb-\	.
.	.	.	.	.	.	.	.	.	.	.	.	.	.	.	4B-/	.	4B-/	.	.	.	.	.
2r	.	2r	.	2r	.	2r	.	.	.	.	.	.	.	.	4G/	.	4G/	.	2r	.	2r	.
.	.	.	.	.	.	.	.	.	.	.	.	.	.	.	4E-/	.	4E-/	.	.	.	.	.
=7	=7	=7	=7	=7	=7	=7	=7	=7	=7	=7	=7	=7	=7	=7	=7	=7	=7	=7	=7	=7	=7	=7
2A-\	.	2cc\	.	4r	.	4r	.	1.ryy	1.ryy	.	.	.	.	.	2f\	.	2a-\	.	4r	.	4r	.
.	.	.	.	(8g/L	.	(8b-/L	.	.	.	.	.	.	.	.	.	.	.	.	(8gg\L	.	(8bb-\L	.
.	.	.	.	8f/J)	.	8a-/J)	.	.	.	.	.	.	.	.	.	.	.	.	8ff\J)	.	8aa-\J)	.
2B-\	.	2b-\	.	4r	.	4r	.	.	.	.	.	.	.	.	2e-\	.	2g\	.	4r	.	4r	.
.	.	.	.	(8f/L	.	(8a-/L	.	.	.	.	.	.	.	.	.	.	.	.	(8ff\L	.	(8aa-\L	.
.	.	.	.	8e-/J)	.	8g/J)	.	.	.	.	.	.	.	.	.	.	.	.	8ee-\J)	.	8gg\J)	.
2BB-/	.	2b-\	.	4r	.	4r	.	.	.	.	.	.	.	.	2B-/	.	2f\	.	4r	.	4r	.
.	.	.	.	(8B-/L	.	(8g/L	.	.	.	.	.	.	.	.	.	.	.	.	8a-/L	.	(8gg\L	.
.	.	.	.	8A-/J)	.	8f/J)	.	.	.	.	.	.	.	.	.	.	.	.	8g/J	.	8ff\J)	.
=8	=8	=8	=8	=8	=8	=8	=8	=8	=8	=8	=8	=8	=8	=8	=8	=8	=8	=8	=8	=8	=8	=8
4E-\	.	4b-\	.	4G/	.	(8e-/L	.	1.ryy	1.ryy	.	.	.	.	.	4.G/	.	4.e-\	.	4g/	.	8ee-\L	.
.	.	.	.	.	.	8d/)	.	.	.	.	.	.	.	.	.	.	.	.	.	.	8dd\	.
4BB-/	.	4b-\	.	4A-/	.	(8f/	.	.	.	.	.	.	.	.	.	.	.	.	4f/	.	8ff\	.
.	.	.	.	.	.	8d/J)	.	.	.	.	.	.	.	.	8B-/	.	8f\	.	.	.	8dd\J	.
2BB-/	.	2b-\	.	2A-/	.	2d/	.	.	.	.	.	.	.	.	2B-/	.	2f\	.	2f/	.	2dd\	.
.	.	.	.	.	.	8qqf/	.	.	.	.	.	.	.	.	.	.	.	.	.	.	.	.
2E-\	.	2b-\	.	2G/	.	2e-/	.	.	.	.	.	.	.	.	2G/	.	2e-\	.	2g/	.	2ee-\	.
!	!	!	!	!	!	!	!	!	!	!	!	!	!	!	!	!	!	!	!	!	!LO:LB:g=original	!
=9	=9	=9	=9	=9	=9	=9	=9	=9	=9	=9	=9	=9	=9	=9	=9	=9	=9	=9	=9	=9	=9	=9
!	!	!	!	!	!	!	!LO:DY:t=p&colon;	!	!	!	!	!	!	!	!	!	!	!	!	!	!	!
2A-\	p	2e-\	p	2a-/	p	2cc\	p	1.ryy	1.ryy	2a-\	a	2cc\	â	.	2r	.	2r	.	2r	.	2r	.
.	.	.	.	.	.	.	.	.	.	.	.	8qqdd-X/	.	.	.	.	.	.	.	.	.	.
2AA-/	.	2e-\	.	4r	.	4r	.	.	.	2a-\	pec-	2cc\	pec-	.	4r	.	4r	p	4r	.	4r	.
!	!	!	!	!	!	!	!LO:DY:t=f&colon;	!	!	!	!	!	!	!	!	!	!	!	!	!	!	!
.	.	.	.	16r	f	16r	f	.	.	.	.	.	.	.	4E-/	.	4e-\	.	4a-/	f	4cc\	.
.	.	.	.	16c|/LL	.	(16cc\LL	.	.	.	.	.	.	.	.	.	.	.	.	.	.	.	.
.	.	.	.	(16d/	.	16dd\	.	.	.	.	.	.	.	.	.	.	.	.	.	.	.	.
.	.	.	.	16c/JJ)	.	16cc\JJ)	.	.	.	.	.	.	.	.	.	.	.	.	.	.	.	.
2r	.	4r	.	(8e-/L	.	(8ee-\L	.	.	.	2r	.	2r	.	.	4E-/	.	4e-\	.	4a-/	.	4cc\	.
.	.	.	.	8c/	.	8cc\	.	.	.	.	.	.	.	.	.	.	.	.	.	.	.	.
.	.	4e-\	.	8c/	.	8cc\	.	.	.	.	.	.	.	.	4E-/	.	4e-\	.	4a-/	.	4cc\	.
.	.	.	.	8A-/J)	.	8a-\J)	.	.	.	.	.	.	.	.	.	.	.	.	.	.	.	.
=10	=10	=10	=10	=10	=10	=10	=10	=10	=10	=10	=10	=10	=10	=10	=10	=10	=10	=10	=10	=10	=10	=10
.	.	.	.	.	.	.	.	.	.	.	.	8qqa-/	.	.	.	.	.	.	.	.	.	.
!	!	!	!	!	!	!	!LO:DY:t=p&colon;	!	!	!	!	!	!	!	!	!	!	!	!	!	!	!
2E-\	.	2e-\	.	2G/	p	2b-\	p	1.ryy	1.ryy	2g\	-ca-	2b-\	-ca-	.	2r	.	2r	.	2r	.	2r	.
!	!	!	!	!LO:LB:g=original	!	!	!	!	!	!	!	!	!	!	!LO:LB:g=original	!	!	!	!	!	!	!
2EE-/	.	2e-\	.	4r	.	4r	.	.	.	2g\	-tis	2b-\	-tis	.	4r	.	4r	.	4r	.	4r	.
!	!	!	!	!	!	!	!LO:DY:t=f&colon;	!	!	!	!	!	!	!	!	!	!	!	!	!	!	!
.	.	.	.	16r	f	16r	f	.	.	.	.	.	.	.	4E-/	.	4B-/	.	4g/	.	4b-\	.
.	.	.	.	16B-|/LL	.	16b-|\LL	.	.	.	.	.	.	.	.	.	.	.	.	.	.	.	.
.	.	.	.	(16c/	.	(16cc\	.	.	.	.	.	.	.	.	.	.	.	.	.	.	.	.
.	.	.	.	16B-/JJ)	.	16b-\JJ)	.	.	.	.	.	.	.	.	.	.	.	.	.	.	.	.
*	*	*	*	*	*	*custos:ee	*	*	*	*	*	*	*	*	*	*	*	*	*	*	*	*
!	!	!	!	!	!	!LO:PB:g=original	!	!	!	!	!	!	!	!	!	!	!	!	!	!	!	!
2r	.	4r	.	(8e-/L	.	(8ee-\L	.	.	.	2r	.	2r	.	.	4E-/	.	4B-/	.	4g/	.	4b-\	.
.	.	.	.	8B-/	.	8b-\	.	.	.	.	.	.	.	.	.	.	.	.	.	.	.	.
.	.	4e-\	.	8B-/	.	8b-\	.	.	.	.	.	.	.	.	4E-/	.	4B-/	.	4g/	.	4b-\	.
.	.	.	.	8G/J)	.	8g\J)	.	.	.	.	.	.	.	.	.	.	.	.	.	.	.	.
=11	=11	=11	=11	=11	=11	=11	=11	=11	=11	=11	=11	=11	=11	=11	=11	=11	=11	=11	=11	=11	=11	=11
!	!	!	!	!	!	!	!LO:DY:a:t=p&colon;	!	!	!	!	!	!	!	!	!	!LO:TX:a:t=1	!	!LO:TX:a:t=1	!	!LO:TX:a:t=1	!
2BB-/	.	4d\	.	4f/	p	4a-/	p	1.ryy	1.ryy	(4f\	a	(4a-\	â	.	1.r	.	1.r	.	1.r	.	1.r	.
.	.	2B-/	.	2a-/	.	2ff\	.	.	.	2a-\)	.	2ff\)	.	.	.	.	.	.	.	.	.	.
4F\	.	.	.	.	.	.	.	.	.	.	.	.	.	.	.	.	.	.	.	.	.	.
4D\	.	4f\	.	4f/	.	4dd\	.	.	.	4f\	pec-	4dd\	pec-	.	.	.	.	.	.	.	.	.
4E-\	.	4e-\	.	4g/	.	4ee-\	.	.	.	4g\	-ca-	4ee-\	-ca-	.	.	.	.	.	.	.	.	.
4G\	.	4g\	.	4e-/	.	4g/	.	.	.	4e-\	-tis	4g/	-tis	.	.	.	.	.	.	.	.	.
=12	=12	=12	=12	=12	=12	=12	=12	=12	=12	=12	=12	=12	=12	=12	=12	=12	=12	=12	=12	=12	=12	=12
2B-\	.	2b-\	.	2e-/	.	2g/	.	1.ryy	1.ryy	2e-\	me-	2g/	me-	.	2r	.	2r	.	2r	.	2r	.
2BB-/	.	2b-\	.	2d/	.	2f/	.	.	.	2d\	-is	2f/	-is	.	2r	.	2r	.	2r	.	2r	.
!	!	!	!	!	!	!	!	!	!	!	!	!	!	!	!	!	!	!	!LO:LB:g=original	!	!	!
2r	.	4r	.	4r	.	4r	.	.	.	2r	.	2r	.	.	4r	.	4r	.	4r	.	4r	.
!	!	!	!	!	!	!	!LO:DY:a:t=f&colon;	!	!	!	!	!	!	!	!	!	!	!	!	!	!	!
.	.	4b-\	f	4e-/	.	4g/	f	.	.	.	.	.	.	.	4e-\	.	4g\	f	4ee-\	.	4gg\	.
=13	=13	=13	=13	=13	=13	=13	=13	=13	=13	=13	=13	=13	=13	=13	=13	=13	=13	=13	=13	=13	=13	=13
2B-\	f	2b-\	.	2e-/	.	2g/	.	1.ryy	1.ryy	2r	.	2r	.	.	2e-\	.	2g\	.	2ee-\	.	2gg\	.
2BB-/	.	2b-\	.	2d/	.	2f/	.	.	.	2r	.	2r	.	.	2B-/	.	2f\	.	2b-\	.	2ff\	.
!	!	!	!	!	!	!	!LO:DY:a:t=p&colon;	!	!	!	!	!	!	!	!	!	!	!	!	!	!	!
2r	.	4r	.	4r	.	4r	p	.	.	4r	.	4r	.	.	2r	.	2r	.	2r	.	2r	.
.	.	4b-\	p	4f/	.	4dd\	.	.	.	4f\	et	4dd\	et	.	.	.	.	.	.	.	.	.
!LO:LB:g=original	!	!LO:LB:g=original	!	!	!	!	!	!	!	!	!	!LO:LB:g=original	!	!	!	!	!	!	!	!	!	!
=14	=14	=14	=14	=14	=14	=14	=14	=14	=14	=14	=14	=14	=14	=14	=14	=14	=14	=14	=14	=14	=14	=14
!	!	!	!	!	!	!	!	!	!	!	!	!	!	!	!LO:TX:a:t=5	!	!LO:TX:a:t=5	!	!LO:TX:a:t=6	!	!LO:TX:a:t=6	!
2B-\	p	2b-\	.	2f/	.	2dd\	.	1.ryy	1.ryy	2f\	om-	2dd\	om-	.	00.r	.	00.r	.	00.r	.	00.r	.
2BB-/	.	2b-\	.	4g/	.	4ee-\	.	.	.	4g\	-nes	4ee-\	-nes	.	.	.	.	.	.	.	.	.
.	.	.	.	4f/	.	4dd\	.	.	.	4f\	i-	4dd\	i-	.	.	.	.	.	.	.	.	.
4r	.	4r	.	4e-/	.	4cc\	.	.	.	4e-\	-ni-	4cc\	-ni-	.	.	.	.	.	.	.	.	.
4G\	.	4g\	.	4d/	.	4bn\	.	.	.	4d\	-qui-	4bn\	-qui-	.	.	.	.	.	.	.	.	.
!	!	!	!	!	!	!	!	!	!	!LO:LB:g=original	!	!	!	!	!	!	!	!	!	!	!	!
=15	=15	=15	=15	=15	=15	=15	=15	=15	=15	=15	=15	=15	=15	=15	=15	=15	=15	=15	=15	=15	=15	=15
4c\	.	4g\	.	4e-/	.	4cc\	.	1.ryy	1.ryy	4e-\	-ta-	4cc\	-ta-	.	.	.	.	.	.	.	.	.
4G\	.	8g\L	.	8f/L	.	8dd\L	.	.	.	8f\L	.	8dd\L	.	.	.	.	.	.	.	.	.	.
.	.	8g\J	.	8d/J	.	8bn\J	.	.	.	8d\J	.	8bn\J	.	.	.	.	.	.	.	.	.	.
2G\	.	2g\	.	2d/	.	2b\	.	.	.	(2d\	-tes	(2b\	-tes	.	.	.	.	.	.	.	.	.
4C/	.	4g\	.	4e-/	.	4cc\	.	.	.	4e-\)	.	4cc\)	.	.	.	.	.	.	.	.	.	.
4r	.	4r	.	4r	.	4r	.	.	.	4r	.	4r	.	.	.	.	.	.	.	.	.	.
=16	=16	=16	=16	=16	=16	=16	=16	=16	=16	=16	=16	=16	=16	=16	=16	=16	=16	=16	=16	=16	=16	=16
2F\	.	2f\	.	2e-/	.	2cc\	.	1.ryy	1.ryy	2e-\	me-	2cc\	me-	.	.	.	.	.	.	.	.	.
*	*	*	*	*	*	*	*	*	*	*	*	*Xtuplet	*	*	*	*	*	*	*	*	*	*
2FF/	.	2f\	.	4f/	.	4dd\	.	.	.	4f\	.	12dd\L	.	.	.	.	.	.	.	.	.	.
.	.	.	.	.	.	.	.	.	.	.	.	12ee-\	.	.	.	.	.	.	.	.	.	.
.	.	.	.	.	.	.	.	.	.	.	.	12dd\J	.	.	.	.	.	.	.	.	.	.
.	.	.	.	4e-/	.	4cc\	.	.	.	4e-\	.	12cc\L	.	.	.	.	.	.	.	.	.	.
.	.	.	.	.	.	.	.	.	.	.	.	12dd\	.	.	.	.	.	.	.	.	.	.
.	.	.	.	.	.	.	.	.	.	.	.	12cc\J	.	.	.	.	.	.	.	.	.	.
4r	.	4r	.	4d/	.	4b-X\	.	.	.	4d\	.	12b-X\L	.	.	.	.	.	.	.	.	.	.
.	.	.	.	.	.	.	.	.	.	.	.	12cc\	.	.	.	.	.	.	.	.	.	.
.	.	.	.	.	.	.	.	.	.	.	.	12b-\J	.	.	.	.	.	.	.	.	.	.
4F\	.	4f\	.	4c/	.	4an\	.	.	.	4c\	.	12an\L	.	.	.	.	.	.	.	.	.	.
.	.	.	.	.	.	.	.	.	.	.	.	12b-\	.	.	.	.	.	.	.	.	.	.
.	.	.	.	.	.	.	.	.	.	.	.	12a\J	.	.	.	.	.	.	.	.	.	.
=17	=17	=17	=17	=17	=17	=17	=17	=17	=17	=17	=17	=17	=17	=17	=17	=17	=17	=17	=17	=17	=17	=17
2B-\	.	2f\	.	4d/	.	4b-\	.	1.ryy	1.ryy	4d\	.	4b-\	.	.	.	.	.	.	.	.	.	.
.	.	.	.	8e-/L	.	8cc\L	.	.	.	8e-\L	.	8cc\L	.	.	.	.	.	.	.	.	.	.
!	!	!	!	!	!	!LO:SIC:v:s=8an\J	!	!	!	!	!	!LO:SIC:v:s=8an\J	!	!	!	!	!	!	!	!	!	!
.	.	.	.	8c/J	.	8a-\J	.	.	.	8c\J	.	8a-\J	.	.	.	.	.	.	.	.	.	.
!	!	!	!	!	!	!LO:SIC:v:s=2a\	!	!	!	!	!	!LO:SIC:v:s=(2a\	!	!	!	!	!	!	!	!	!	!
2F\	.	2f\	.	2c/	.	2a-\	.	.	.	(2c\	-as	(2a-\	-as	.	.	.	.	.	.	.	.	.
2BB-/	.	2f\	.	2d/	.	2b-\	.	.	.	2d\)	.	2b-\)	.	.	.	.	.	.	.	.	.	.
!	!	!	!	!	!	!LO:LB:g=original	!	!	!	!	!	!	!	!	!	!	!	!	!	!	!	!
=18	=18	=18	=18	=18	=18	=18	=18	=18	=18	=18	=18	=18	=18	=18	=18	=18	=18	=18	=18	=18	=18	=18
2F\	.	4B-/	.	4f/	.	4a-X/	.	1.ryy	1.ryy	4f\	me-	(4a-X\	me-	.	1.r	.	1.r	.	0.r	.	0.r	.
.	.	2f\	.	2d/	.	2ff\	.	.	.	2d\	.	2f/	.	.	.	.	.	.	.	.	.	.
4D/	.	.	.	.	.	.	.	.	.	.	.	.	.	.	.	.	.	.	.	.	.	.
4BB-/	.	4d\	.	4f/	.	4a-/	.	.	.	4f\	.	4a-\)	.	.	.	.	.	.	.	.	.	.
4E-\	.	4e-\	.	4e-/	.	4g/	.	.	.	4e-\	.	4g\	-as	.	.	.	.	.	.	.	.	.
4G\	.	4g\	.	4g/	.	4ee-\	.	.	.	4g\	-as	4ee-\	.	.	.	.	.	.	.	.	.	.
!	!	!	!	!LO:LB:g=original	!	!	!	!	!	!	!	!LO:LB:g=original	!	!	!	!	!	!	!	!	!	!
=19	=19	=19	=19	=19	=19	=19	=19	=19	=19	=19	=19	=19	=19	=19	=19	=19	=19	=19	=19	=19	=19	=19
2B-\	.	2b-\	.	2g/	.	2ee-\	.	1.ryy	1.ryy	2g\	de-	2ee-\	de-	.	2r	.	2r	.	.	.	.	.
!	!	!	!	!	!	!	!	!	!	!	!	!	!	!	!	!	!	!LO:DY:rj	!	!	!	!
2BB-/	.	2B-/	.	2f/	.	2dd\	.	.	.	2f\	-le	2dd\	-le	.	2B-/	.	2B-/	f	.	.	.	.
2r	.	4B-/	f	2r	.	2r	.	.	.	2r	.	2r	.	.	2B-/	.	2B-/	.	.	.	.	.
.	.	4B-/	.	.	.	.	.	.	.	.	.	.	.	.	.	.	.	.	.	.	.	.
=20	=20	=20	=20	=20	=20	=20	=20	=20	=20	=20	=20	=20	=20	=20	=20	=20	=20	=20	=20	=20	=20	=20
2r	.	4B-/	.	8f/L	.	8a-/L	.	1.ryy	1.ryy	8f\L	i-	8a-\L	i-	.	1.B-	.	1.B-	.	2r	.	2r	.
.	.	.	.	8e-/	.	8g/	.	.	.	8e-\	.	8g\	.	.	.	.	.	.	.	.	.	.
.	.	4B-/	.	8d/	.	8f/	.	.	.	8d\	.	8f\	.	.	.	.	.	.	.	.	.	.
.	.	.	.	8e-/J	.	8g/J	.	.	.	8e-\J	.	8g\J	.	.	.	.	.	.	.	.	.	.
.	.	.	.	8qqe-/	.	8qqg/	.	.	.	8qqe-/	.	8qqg/	.	.	.	.	.	.	.	.	.	.
2B-\	.	4B-/	.	2d/	.	2f/	.	.	.	2d\	-ni-	2f/	-ni-	.	.	.	.	.	4r	.	4r	.
.	.	4B-/	.	.	.	.	.	.	.	.	.	.	.	.	.	.	.	.	4ff\	.	4aa-\	.
2BB-/	.	4B-/	.	4r	.	4r	.	.	.	4r	.	4r	.	.	.	.	.	.	4ee-\	.	4gg\	.
!	!	!	!	!	!	!	!	!	!	!LO:LB:g=original	!	!	!	!	!	!	!	!	!	!	!	!
.	.	4B-/	.	4f/	.	4a-/	.	.	.	4f\	-qui-	4a-\	-qui-	.	.	.	.	.	4dd\	.	4ff\	.
=21	=21	=21	=21	=21	=21	=21	=21	=21	=21	=21	=21	=21	=21	=21	=21	=21	=21	=21	=21	=21	=21	=21
2r	.	4B-/	.	8g/L	.	(8b-/L	.	1.ryy	1.ryy	8g\L	-ta-	8b-\L	-ta-	.	1.B-	.	1.B-	.	2r	.	2r	.
.	.	.	.	8f/	.	8a-/	.	.	.	8f\	.	8a-\	.	.	.	.	.	.	.	.	.	.
.	.	4B-/	.	8e-/	.	8g/	.	.	.	8e-\	.	8g\	.	.	.	.	.	.	.	.	.	.
.	.	.	.	8f/J	.	8a-/J)	.	.	.	8f\J	.	8a-\J	.	.	.	.	.	.	.	.	.	.
.	.	.	.	8qqf/	.	8qqa-/	.	.	.	8qqf/	.	8qqa-/	.	.	.	.	.	.	.	.	.	.
2e-\	.	4B-/	.	2e-/	.	2g/	.	.	.	2e-\	-tes	2g\	-tes	.	.	.	.	.	4r	.	4r	.
.	.	4B-/	.	.	.	.	.	.	.	.	.	.	.	.	.	.	.	.	4gg\	.	4bb-\	.
2E-\	.	4B-/	.	4r	.	4r	.	.	.	4r	.	4r	.	.	.	.	.	.	4ff\	.	4aa-\	.
.	.	4B-/	.	4g/	.	4b-/	.	.	.	4e-\	me-	4g\	me-	.	.	.	.	.	4ee-\	.	4gg\	.
=22	=22	=22	=22	=22	=22	=22	=22	=22	=22	=22	=22	=22	=22	=22	=22	=22	=22	=22	=22	=22	=22	=22
!	!	!	!	!	!	!	!	!	!	!	!	!	!	!LO:DY:a:t=p&colon;	!	!	!	!	!	!	!	!
2r	.	4B-/	.	8f/L	.	(8a-/L	.	1.ryy	1.ryy	8f\L	.	8a-\L	.	p	2B-/	.	2B-/	.	2r	.	2r	.
.	.	.	.	8e-/	.	8g/	.	.	.	8e-\	.	8g\	.	.	.	.	.	.	.	.	.	.
.	.	4B-/	.	8d/	.	8f/	.	.	.	8d\	.	8f\	.	.	.	.	.	.	.	.	.	.
.	.	.	.	8e-/J	.	8g/J)	.	.	.	8e-\J	.	8g\J	.	.	.	.	.	.	.	.	.	.
.	.	.	.	.	.	.	.	.	.	8qqe-/	.	8qqg/	.	.	.	.	.	.	.	.	.	.
!	!	!	!	!	!	!	!	!	!	!	!	!	!	!	!	!	!LO:LB:g=original	!	!	!	!	!
2B-\	.	4B-/	.	4d/	.	4f/	.	.	.	2d\	-as	2f/	-us	.	4r	.	4r	.	4r	.	4r	.
.	.	4B-/	.	4B-/	.	4B-/	.	.	.	.	.	.	.	.	4f\	.	4a-\	.	4a-/	.	4a-/	.
2BB-/	.	4B-/	.	4B-/	.	4d/	.	.	.	4r	.	4r	.	.	4e-\	.	4g\	.	4g/	.	4g/	.
.	.	4B-/	.	4B-/	.	4f/	.	.	.	4f\	de-	4a-\	de-	.	4B-/	.	4f\	.	4f/	.	4f/	.
!	!	!LO:PB:g=original	!	!	!	!	!	!	!	!	!	!	!	!	!	!	!	!	!	!	!	!
=23	=23	=23	=23	=23	=23	=23	=23	=23	=23	=23	=23	=23	=23	=23	=23	=23	=23	=23	=23	=23	=23	=23
2r	.	4B-/	.	8g/L	.	8b-/L	.	1.ryy	1.ryy	8g\L	.	8b-\L	.	.	2B-/	.	2B-/	.	2r	.	2r	.
.	.	.	.	8f/	.	8a-/	.	.	.	8f\	.	8a-\	.	.	.	.	.	.	.	.	.	.
.	.	4B-/	.	8e-/	.	8g/	.	.	.	8e-\	.	8g\	.	.	.	.	.	.	.	.	.	.
.	.	.	.	8f/J	.	8a-/J	.	.	.	8f\J	.	8a-\J	.	.	.	.	.	.	.	.	.	.
.	.	.	.	.	.	.	.	.	.	8qqf/	.	8qqa-/	.	.	.	.	.	.	.	.	.	.
2e-\	.	4B-/	.	4e-/	.	4g/	.	.	.	2e-\	-le	2g\	-le	.	4r	.	4r	.	4r	.	4r	.
.	.	4B-/	.	4B-/	.	4B-/	.	.	.	.	.	.	.	.	4g\	.	4b-\	.	4g/	.	4b-/	.
4E-\	.	4B-/	.	4B-/	.	4e-/	.	.	.	4r	.	4r	.	.	4f\	.	4a-\	.	4f/	.	4a-/	.
4G\	.	4b-\	.	4g/	.	4ee-\	.	.	.	4g\	i-	4ee-\	i-	.	4e-\	.	4g\	.	4e-/	.	4g/	.
=24	=24	=24	=24	=24	=24	=24	=24	=24	=24	=24	=24	=24	=24	=24	=24	=24	=24	=24	=24	=24	=24	=24
!	!	!	!	!	!	!	!	!	!	!	!	!	!	!	!LO:TX:a:t=6	!	!LO:TX:a:t=6	!	!LO:TX:a:t=6	!	!LO:TX:a:t=6	!
.	.	.	.	.	.	8qqdd/	.	.	.	.	.	.	.	.	.	.	.	.	.	.	.	.
4A-\	.	4cc\	.	4a-/	.	4cc\	.	1.ryy	1.ryy	4a-\	-ni-	8dd\L	-ni-	.	00.r	.	00.r	.	00.r	.	00.r	.
.	.	.	.	.	.	.	.	.	.	.	.	8cc\J	.	.	.	.	.	.	.	.	.	.
4F\	.	4a-\	.	8g/L	.	8b-\L	.	.	.	8g\L	-qui-	8b-\L	-qui-	.	.	.	.	.	.	.	.	.
.	.	.	.	8f/J	.	8a-\J	.	.	.	8f\J	.	8a-\J	.	.	.	.	.	.	.	.	.	.
!	!	!	!	!	!	!	!	!	!	!	!	!LO:LB:g=original	!	!	!	!	!	!	!	!	!	!
2B-\	.	2b-\	.	2e-/	.	2g/	.	.	.	2e-\	-ta-	2g/	-ta-	.	.	.	.	.	.	.	.	.
2BB-/	.	2B-/	.	2d/	.	2f/	.	.	.	2d\	.	2f/	-tes	.	.	.	.	.	.	.	.	.
!	!	!	!	!	!	!LO:LB:g=original	!	!	!	!	!	!	!	!	!	!	!	!	!	!	!	!
=25	=25	=25	=25	=25	=25	=25	=25	=25	=25	=25	=25	=25	=25	=25	=25	=25	=25	=25	=25	=25	=25	=25
2E-\	.	2b-\	.	2g/	.	(8ee-\L	.	1.ryy	1.ryy	2e-\	-tes	8ee-\L	me-	.	.	.	.	.	.	.	.	.
.	.	.	.	.	.	8dd\	.	.	.	.	.	8dd\	.	.	.	.	.	.	.	.	.	.
.	.	.	.	.	.	8gg\	.	.	.	.	.	8gg\	.	.	.	.	.	.	.	.	.	.
.	.	.	.	.	.	8ff\J)	.	.	.	.	.	8ff\J	.	.	.	.	.	.	.	.	.	.
2r	.	2r	.	2r	.	(8ee-\L	.	.	.	2r	.	8ee-\L	.	.	.	.	.	.	.	.	.	.
.	.	.	.	.	.	8dd\	.	.	.	.	.	8dd\	.	.	.	.	.	.	.	.	.	.
.	.	.	.	.	.	8ee-\	.	.	.	.	.	8ee-\	.	.	.	.	.	.	.	.	.	.
.	.	.	.	.	.	8dd-X\J)	.	.	.	.	.	8dd-X\J	.	.	.	.	.	.	.	.	.	.
!LO:LB:g=original	!	!	!	!	!	!	!	!	!	!	!	!	!	!	!	!	!	!	!	!	!	!
2r	.	2r	.	2r	.	(8dd-\L	.	.	.	2r	.	8dd-\L	.	.	.	.	.	.	.	.	.	.
.	.	.	.	.	.	8cc\	.	.	.	.	.	8cc\	.	.	.	.	.	.	.	.	.	.
.	.	.	.	.	.	8cc\	.	.	.	.	.	8cc\	.	.	.	.	.	.	.	.	.	.
.	.	.	.	.	.	8bn\J)	.	.	.	.	.	8bn\J	.	.	.	.	.	.	.	.	.	.
!	!	!	!	!	!	!	!	!	!	!LO:LB:g=original	!	!	!	!	!	!	!	!	!	!	!	!
=26	=26	=26	=26	=26	=26	=26	=26	=26	=26	=26	=26	=26	=26	=26	=26	=26	=26	=26	=26	=26	=26	=26
.	.	.	.	.	.	.	.	.	.	.	.	8qqbn/	.	.	.	.	.	.	.	.	.	.
!	!	!	!	!	!	!LO:N:vis=2.	!	!	!	!	!	!	!	!	!	!	!	!	!	!	!	!
4r	.	4r	.	4r	.	1.cc	.	1.ryy	1.ryy	1a-	me-	1.cc	-as	.	.	.	.	.	.	.	.	.
4A-\	.	4e-\	.	4a-/	.	.	.	.	.	.	.	.	.	.	.	.	.	.	.	.	.	.
4A-\	.	4e-\	.	4a-/	.	.	.	.	.	.	.	.	.	.	.	.	.	.	.	.	.	.
4A-\	.	4e-\	.	4a-/	.	.	.	.	.	.	.	.	.	.	.	.	.	.	.	.	.	.
4A-\	.	4e-\	.	4a-/	.	.	.	.	.	2a-\	-as	.	.	.	.	.	.	.	.	.	.	.
4A-\	.	4e-\	.	4a-/	.	.	.	.	.	.	.	.	.	.	.	.	.	.	.	.	.	.
!	!	!	!	!LO:LB:g=original	!	!	!	!	!	!	!	!	!	!	!	!	!	!	!	!	!	!
=27	=27	=27	=27	=27	=27	=27	=27	=27	=27	=27	=27	=27	=27	=27	=27	=27	=27	=27	=27	=27	=27	=27
.	.	.	.	.	.	8qqcc/	.	.	.	.	.	8qqcc/	.	.	.	.	.	.	.	.	.	.
!	!	!	!	!	!	!LO:N:vis=1	!	!	!	!	!	!	!	!	!	!	!	!	!	!	!	!
4r	.	4r	.	4r	.	1.dd	.	1.ryy	1.ryy	1.a-	me-	1.dd	me-	.	.	.	.	.	.	.	.	.
4B-\	.	4f\	.	4a-/	.	.	.	.	.	.	.	.	.	.	.	.	.	.	.	.	.	.
4B-\	.	4f\	.	4a-/	.	.	.	.	.	.	.	.	.	.	.	.	.	.	.	.	.	.
4B-\	.	4f\	.	4a-/	.	.	.	.	.	.	.	.	.	.	.	.	.	.	.	.	.	.
4B-\	.	4f\	.	4a-/	.	.	.	.	.	.	.	.	.	.	.	.	.	.	.	.	.	.
4B-\	.	4f\	.	4a-/	.	.	.	.	.	.	.	.	.	.	.	.	.	.	.	.	.	.
=28	=28	=28	=28	=28	=28	=28	=28	=28	=28	=28	=28	=28	=28	=28	=28	=28	=28	=28	=28	=28	=28	=28
4c\	.	4e-\	.	4g/	.	8ee-\L	.	1.ryy	1.ryy	4g\	.	8ee-\L	.	.	0.r	.	0.r	.	0.r	.	0.r	.
.	.	.	.	.	.	8b-\	.	.	.	.	.	8b-\J	.	.	.	.	.	.	.	.	.	.
4A-\	.	4cc\	.	8a-/L	.	8cc\	.	.	.	8a-\L	-as	8cc\L	-as	.	.	.	.	.	.	.	.	.
.	.	.	.	8f/J	.	8a-\J	.	.	.	8f\J	.	8a-\J	.	.	.	.	.	.	.	.	.	.
2B-\	.	2b-\	.	2e-/	.	2g/	.	.	.	(2e-\	de-	(2g/	de-	.	.	.	.	.	.	.	.	.
2BB-/	.	2b-\	.	2d/	.	2f/	.	.	.	2d\)	.	2f/)	.	.	.	.	.	.	.	.	.	.
=29	=29	=29	=29	=29	=29	=29	=29	=29	=29	=29	=29	=29	=29	=29	=29	=29	=29	=29	=29	=29	=29	=29
!	!	!	!	!LO:N:vis=2	!	!	!	!	!	!	!	!	!	!	!	!	!	!	!	!	!	!
1D	.	1b-	.	1B-	.	1f	.	1.ryy	1.ryy	(1B-	-le	(1f	-le	.	.	.	.	.	.	.	.	.
2E-\	.	2b-\	.	2G/	.	2e-/	.	.	.	2G/)	.	2e-/)	.	.	.	.	.	.	.	.	.	.
=30	=30	=30	=30	=30	=30	=30	=30	=30	=30	=30	=30	=30	=30	=30	=30	=30	=30	=30	=30	=30	=30	=30
!	!	!	!	!	!LO:DY:t=fort	!	!LO:DY:a:t=for&colon;	!	!	!	!	!	!	!	!	!	!	!	!	!	!	!
4B-\	f	8B-/L	f	8d/L	f	(8a-/L	f	1.ryy	1.ryy	00.r	.	00.r	.	.	2B-/	f	2f\	f	2dd\	f	2ff\	f
.	.	8d/	.	8f/	.	8f/	.	.	.	.	.	.	.	.	.	.	.	.	.	.	.	.
4BB-/	.	8B-/	.	8d/	.	8f/	.	.	.	.	.	.	.	.	.	.	.	.	.	.	.	.
.	.	8d/J	.	8f/J	.	8d/J)	.	.	.	.	.	.	.	.	.	.	.	.	.	.	.	.
4r	.	8B-/L	.	8d/L	.	2.B-/	.	.	.	.	.	.	.	.	4r	.	4r	.	4r	.	4r	.
.	.	8d/	.	8f/	.	.	.	.	.	.	.	.	.	.	.	.	.	.	.	.	.	.
4BB-/	.	8B-/	.	8d/	.	.	.	.	.	.	.	.	.	.	4B-/	.	4f\	.	4ff\	.	4aa-\	.
.	.	8d/J	.	8f/J	.	.	.	.	.	.	.	.	.	.	.	.	.	.	.	.	.	.
!	!	!LO:LB:g=original	!	!	!	!	!	!	!	!	!	!	!	!	!	!	!	!	!	!	!	!
4D/	.	8B-/L	.	8d/L	.	.	.	.	.	.	.	.	.	.	4e-\	.	4g\	.	4ee-\	.	4gg\	.
.	.	8d/	.	8f/	.	.	.	.	.	.	.	.	.	.	.	.	.	.	.	.	.	.
4BB-/	.	8B-/	.	8d/	.	8d/L	.	.	.	.	.	.	.	.	4f\	.	4a-\	.	4dd\	.	4ff\	.
.	.	8d/J	.	8f/J	.	8f/J	.	.	.	.	.	.	.	.	.	.	.	.	.	.	.	.
!	!	!	!	!	!	!	!	!	!	!	!	!	!	!	!	!	!	!	!	!	!LO:LB:g=original	!
=31	=31	=31	=31	=31	=31	=31	=31	=31	=31	=31	=31	=31	=31	=31	=31	=31	=31	=31	=31	=31	=31	=31
4E-\	.	8B-/L	.	8e-/L	.	(8b-/L	.	1.ryy	1.ryy	.	.	.	.	.	2e-\	.	2g\	.	2ee-\	.	2gg\	.
.	.	8e-/	.	8g/	.	8g/)	.	.	.	.	.	.	.	.	.	.	.	.	.	.	.	.
4EE-/	.	8B-/	.	8e-/	.	(8g/	.	.	.	.	.	.	.	.	.	.	.	.	.	.	.	.
.	.	8e-/	.	8g/J	.	8e-/J)	.	.	.	.	.	.	.	.	.	.	.	.	.	.	.	.
4r	.	8B-/	.	8e-/L	.	2.B-/	.	.	.	.	.	.	.	.	4r	.	4r	.	4r	.	4r	.
.	.	8e-/	.	8g/	.	.	.	.	.	.	.	.	.	.	.	.	.	.	.	.	.	.
4E-\	.	8B-/	.	8e-/	.	.	.	.	.	.	.	.	.	.	4e-\	.	4g\	.	4gg\	.	4bb-\	.
.	.	8e-/J	.	8g/J	.	.	.	.	.	.	.	.	.	.	.	.	.	.	.	.	.	.
4G\	.	8B-/L	.	8e-/L	.	.	.	.	.	.	.	.	.	.	4B-/	.	4f\	.	4ff\	.	4aa-\	.
.	.	8e-/	.	8g/	.	.	.	.	.	.	.	.	.	.	.	.	.	.	.	.	.	.
4E-\	.	8B-/	.	8e-/	.	(8g/L	.	.	.	.	.	.	.	.	4G/	.	4e-\	.	4ee-\	.	4gg\	.
.	.	8e-/J	.	8g/J	.	8e-/J)	.	.	.	.	.	.	.	.	.	.	.	.	.	.	.	.
=32	=32	=32	=32	=32	=32	=32	=32	=32	=32	=32	=32	=32	=32	=32	=32	=32	=32	=32	=32	=32	=32	=32
!	!	!	!	!	!	!	!LO:DY:a:t=p&colon;	!	!	!	!	!	!	!	!	!	!	!	!	!	!	!
4B-\	p	8B-/L	p	8d/L	p	(8a-/L	p	1.ryy	1.ryy	.	.	.	.	.	2B-/	p	2f\	p	2dd\	p	2ff\	p
.	.	8d/	.	8f/	.	8f/)	.	.	.	.	.	.	.	.	.	.	.	.	.	.	.	.
4BB-/	.	8B-/	.	8d/	.	(8f/	.	.	.	.	.	.	.	.	.	.	.	.	.	.	.	.
.	.	8d/J	.	8f/J	.	8d/J)	.	.	.	.	.	.	.	.	.	.	.	.	.	.	.	.
4r	.	8B-/L	.	8d/L	.	2.B-/	.	.	.	.	.	.	.	.	4r	.	4r	.	4r	.	4r	.
.	.	8d/	.	8f/	.	.	.	.	.	.	.	.	.	.	.	.	.	.	.	.	.	.
!	!	!	!	!	!	!	!	!	!	!	!	!	!	!	!LO:LB:g=original	!	!	!	!	!	!	!
4BB-/	.	8B-/	.	8d/	.	.	.	.	.	.	.	.	.	.	4B-/	.	4f\	.	4ff\	.	4aa-\	.
.	.	8d/J	.	8f/J	.	.	.	.	.	.	.	.	.	.	.	.	.	.	.	.	.	.
4D/	.	8B-/L	.	8d/L	.	.	.	.	.	.	.	.	.	.	4e-\	.	4g\	.	4ee-\	.	4gg\	.
.	.	8d/	.	8f/	.	.	.	.	.	.	.	.	.	.	.	.	.	.	.	.	.	.
4BB-/	.	8B-/	.	8d/	.	(8d/L	.	.	.	.	.	.	.	.	4f\	.	4a-\	.	4dd\	.	4ff\	.
.	.	8d/J	.	8f/J	.	8f/J)	.	.	.	.	.	.	.	.	.	.	.	.	.	.	.	.
!	!	!	!	!	!	!LO:LB:g=original	!	!	!	!	!	!	!	!	!	!	!	!	!	!	!	!
=33	=33	=33	=33	=33	=33	=33	=33	=33	=33	=33	=33	=33	=33	=33	=33	=33	=33	=33	=33	=33	=33	=33
4E-\	.	8B-/L	.	8e-/L	.	(8b-/L	.	1.ryy	1.ryy	.	.	.	.	.	2e-\	.	2g\	.	2ee-\	.	2gg\	.
.	.	8e-/	.	8g/	.	8g/)	.	.	.	.	.	.	.	.	.	.	.	.	.	.	.	.
4EE-/	.	8B-/	.	8e-/	.	(8g/	.	.	.	.	.	.	.	.	.	.	.	.	.	.	.	.
.	.	8e-/J	.	8g/J	.	8e-/J)	.	.	.	.	.	.	.	.	.	.	.	.	.	.	.	.
4r	.	8B-/L	.	8e-/L	.	2.B-/	.	.	.	.	.	.	.	.	4r	.	4r	.	4r	.	4r	.
.	.	8e-/	.	8g/	.	.	.	.	.	.	.	.	.	.	.	.	.	.	.	.	.	.
!	!	!	!	!	!	!	!	!	!	!	!	!	!	!	!	!	!	!	!LO:LB:g=original	!	!	!
4E-\	.	8B-/	.	8e-/	.	.	.	.	.	.	.	.	.	.	4e-\	.	4g\	.	4gg\	.	4bb-\	.
.	.	8e-/J	.	8g/J	.	.	.	.	.	.	.	.	.	.	.	.	.	.	.	.	.	.
4G\	.	8B-/L	.	8e-/L	.	.	.	.	.	.	.	.	.	.	4B-/	.	4f\	.	4ff\	.	4aa-\	.
.	.	8e-/	.	8g/	.	.	.	.	.	.	.	.	.	.	.	.	.	.	.	.	.	.
4E-\	.	8B-/	.	8e-/	.	(8g/L	.	.	.	.	.	.	.	.	4G/	.	4e-\	.	4ee-\	.	4gg\	.
.	.	8e-/J	.	8g/J	.	8e-/J)	.	.	.	.	.	.	.	.	.	.	.	.	.	.	.	.
!	!	!	!	!LO:LB:g=original	!	!	!	!	!	!	!	!	!	!	!	!	!	!	!	!	!	!
=34	=34	=34	=34	=34	=34	=34	=34	=34	=34	=34	=34	=34	=34	=34	=34	=34	=34	=34	=34	=34	=34	=34
!	!	!	!	!	!	!	!LO:DY:a:t=f&colon;	!	!	!	!	!	!	!	!	!	!	!	!	!	!	!
4A-\	f	8A-/L	f	8e-/L	f	(8cc\L	f	1.ryy	1.ryy	00.r	.	00.r	.	.	2e-\	f	2a-\	f	2aa-\	.	2ccc\	f
.	.	8c/	.	8a-/	.	8a-\	.	.	.	.	.	.	.	.	.	.	.	.	.	.	.	.
4AA-/	.	8A-/	.	8e-/	.	8a-\	.	.	.	.	.	.	.	.	.	.	.	.	.	.	.	.
.	.	8c/J	.	8a-/J	.	8e-\J)	.	.	.	.	.	.	.	.	.	.	.	.	.	.	.	.
4r	.	8A-/L	.	8e-/L	.	8r	.	.	.	.	.	.	.	.	4r	.	4r	.	4r	.	4r	.
.	.	8c/	.	8a-/	.	8a-|\L	.	.	.	.	.	.	.	.	.	.	.	.	.	.	.	.
4A-\	.	8A-/	.	8e-/	.	(8cc\	.	.	.	.	.	.	.	.	4e-\	.	4a-\	.	4aa-\	.	4ccc\	.
.	.	8c/J	.	8a-/J	.	8a-\J)	.	.	.	.	.	.	.	.	.	.	.	.	.	.	.	.
4E-\	.	8A-/L	.	8e-/L	.	(8ee-\L	.	.	.	.	.	.	.	.	4e-\	.	4a-\	.	4aa-\	.	4ccc\	.
.	.	8c/	.	8a-/	.	8cc\	.	.	.	.	.	.	.	.	.	.	.	.	.	.	.	.
4C\	.	8A-/	.	8e-/	.	8cc\	.	.	.	.	.	.	.	.	4e-\	.	4a-\	.	4aa-\	.	4ccc\	.
.	.	8c/J	.	8a-/J	.	8a-\J)	.	.	.	.	.	.	.	.	.	.	.	.	.	.	.	.
!LO:LB:g=original	!	!	!	!	!	!	!	!	!	!	!	!	!	!	!	!	!	!	!	!	!	!
=35	=35	=35	=35	=35	=35	=35	=35	=35	=35	=35	=35	=35	=35	=35	=35	=35	=35	=35	=35	=35	=35	=35
4E-\	.	8G/L	.	8e-/L	.	(8b-/L	.	1.ryy	1.ryy	.	.	.	.	.	2e-\	.	2b-\	.	2gg\	.	2bb-\	.
.	.	8B-/	.	8g/	.	8g/	.	.	.	.	.	.	.	.	.	.	.	.	.	.	.	.
4EE-/	.	8G/	.	8e-/	.	8g/	.	.	.	.	.	.	.	.	.	.	.	.	.	.	.	.
.	.	8B-/J	.	8g/J	.	8e-/J)	.	.	.	.	.	.	.	.	.	.	.	.	.	.	.	.
4r	.	8G/L	.	8e-/L	.	8r	.	.	.	.	.	.	.	.	4r	.	4r	.	4r	.	4r	.
.	.	8B-/	.	8g/	.	8g|/L	.	.	.	.	.	.	.	.	.	.	.	.	.	.	.	.
4E-\	.	8G/	.	8e-/	.	(8b-/	.	.	.	.	.	.	.	.	4e-\	.	4b-\	.	4gg\	.	4bb-\	.
.	.	8B-/J	.	8g/J	.	8g/J)	.	.	.	.	.	.	.	.	.	.	.	.	.	.	.	.
!	!	!LO:LB:g=original	!	!	!	!	!	!	!	!	!	!	!	!	!	!	!	!	!	!	!	!
4G\	.	8G/L	.	8e-/L	.	(8ee-\L	.	.	.	.	.	.	.	.	4e-\	.	4b-\	.	4gg\	.	4bb-\	.
.	.	8B-/	.	8g/	.	8b-\	.	.	.	.	.	.	.	.	.	.	.	.	.	.	.	.
4E-\	.	8G/	.	8e-/	.	8b-\	.	.	.	.	.	.	.	.	4e-\	.	4b-\	.	4gg\	.	4bb-\	.
.	.	8B-/J	.	8g/J	.	8g\J)	.	.	.	.	.	.	.	.	.	.	.	.	.	.	.	.
=36	=36	=36	=36	=36	=36	=36	=36	=36	=36	=36	=36	=36	=36	=36	=36	=36	=36	=36	=36	=36	=36	=36
4A-\	.	4A-/	.	8a-|/L	.	(8cc\L	.	1.ryy	1.ryy	.	.	.	.	.	4a-\	.	4cc\	.	8aa-|\L	.	(8ccc\L	.
.	.	.	.	8cc|/	.	8a-\)	.	.	.	.	.	.	.	.	.	.	.	.	(8cc\	.	8aa-\	.
4F\	.	4cc\	.	(8b-/	.	(8g\	.	.	.	.	.	.	.	.	4f\	.	4a-\	.	8b-\	.	8gg\	.
.	.	.	.	8a-/J)	.	8f\J)	.	.	.	.	.	.	.	.	.	.	.	.	8a-\J)	.	8ff\J)	.
2B-\	.	2b-\	.	2g/	.	2e-/	.	.	.	.	.	.	.	.	2e-\	.	2g\	.	2g/	.	2ee-\	.
2BB-/	.	2b-\	.	2f/	.	2d/	.	.	.	.	.	.	.	.	2B-/	.	2f\	.	2f/	.	2dd\	.
=37	=37	=37	=37	=37	=37	=37	=37	=37	=37	=37	=37	=37	=37	=37	=37	=37	=37	=37	=37	=37	=37	=37
8e-\L	.	8b-\L	.	8r	.	8r	.	1.ryy	1.ryy	.	.	.	.	.	1.g	.	1.b-T	.	1.gg	.	1.bb-	.
8E-\J	.	8b-\	.	16e-/LL	.	16e-/LL	.	.	.	.	.	.	.	.	.	.	.	.	.	.	.	.
.	.	.	.	16e-/JJ	.	16e-/JJ	.	.	.	.	.	.	.	.	.	.	.	.	.	.	.	.
8r	.	8b-\	.	16g/LL	.	16g/LL	.	.	.	.	.	.	.	.	.	.	.	.	.	.	.	.
.	.	.	.	16g/	.	16g/	.	.	.	.	.	.	.	.	.	.	.	.	.	.	.	.
8E-\	.	8b-\J	.	16b-/	.	16b-/	.	.	.	.	.	.	.	.	.	.	.	.	.	.	.	.
.	.	.	.	16b-/JJ	.	16b-/JJ	.	.	.	.	.	.	.	.	.	.	.	.	.	.	.	.
*	*	*tremolo	*	*	*	*	*	*	*	*	*	*	*	*	*	*	*	*	*	*	*	*
8G\L	.	8b-\L	.	16ee-\LL	.	16ee-\LL	.	.	.	.	.	.	.	.	.	.	.	.	.	.	.	.
.	.	.	.	16ee-\	.	16ee-\	.	.	.	.	.	.	.	.	.	.	.	.	.	.	.	.
8B-\	.	8b-\	.	16b-\	.	16b-\	.	.	.	.	.	.	.	.	.	.	.	.	.	.	.	.
.	.	.	.	16b-\JJ	.	16b-\JJ	.	.	.	.	.	.	.	.	.	.	.	.	.	.	.	.
8e-\	.	8b-\	.	16g/LL	.	16g/LL	.	.	.	.	.	.	.	.	.	.	.	.	.	.	.	.
.	.	.	.	16g/	.	16g/	.	.	.	.	.	.	.	.	.	.	.	.	.	.	.	.
8B-\J	.	8b-\J	.	16b-/	.	16b-/	.	.	.	.	.	.	.	.	.	.	.	.	.	.	.	.
.	.	.	.	16b-/JJ	.	16b-/JJ	.	.	.	.	.	.	.	.	.	.	.	.	.	.	.	.
8G\L	.	8b-\L	.	16g/LL	.	16g/LL	.	.	.	.	.	.	.	.	.	.	.	.	.	.	.	.
.	.	.	.	16g/	.	16g/	.	.	.	.	.	.	.	.	.	.	.	.	.	.	.	.
8B-\	.	8b-\	.	16f/	.	16f/	.	.	.	.	.	.	.	.	.	.	.	.	.	.	.	.
.	.	.	.	16f/JJ	.	16f/JJ	.	.	.	.	.	.	.	.	.	.	.	.	.	.	.	.
!	!	!	!	!	!	!LO:LB:g=original	!	!	!	!	!	!	!	!	!	!	!	!	!	!	!	!
8G\	.	8b-\	.	16g/LL	.	16g/LL	.	.	.	.	.	.	.	.	.	.	.	.	.	.	.	.
.	.	.	.	16g/	.	16g/	.	.	.	.	.	.	.	.	.	.	.	.	.	.	.	.
8E-\J	.	8b-\J	.	16e-/	.	16e-/	.	.	.	.	.	.	.	.	.	.	.	.	.	.	.	.
.	.	.	.	16e-/JJ	.	16e-/JJ	.	.	.	.	.	.	.	.	.	.	.	.	.	.	.	.
!	!	!	!	!	!	!	!	!	!	!	!	!	!	!	!	!	!LO:LB:g=original	!	!	!	!	!
=38	=38	=38	=38	=38	=38	=38	=38	=38	=38	=38	=38	=38	=38	=38	=38	=38	=38	=38	=38	=38	=38	=38
!LO:TX:t=P:problem:mixed beam	!	!	!	!	!	!	!	!	!	!	!	!	!	!	!	!	!	!	!	!	!	!
8B-\L	.	8b-\L	.	8r	.	8r	.	1.ryy	1.ryy	00.r	.	00.r	.	.	1.f	.	1.a-	.	1.ff	.	1.aa-	.
8BB-/J	.	8b-\	.	16B-/LL	.	16B-/LL	.	.	.	.	.	.	.	.	.	.	.	.	.	.	.	.
.	.	.	.	16B-/JJ	.	16B-/JJ	.	.	.	.	.	.	.	.	.	.	.	.	.	.	.	.
8r	.	8b-\	.	16d/LL	.	16d/LL	.	.	.	.	.	.	.	.	.	.	.	.	.	.	.	.
.	.	.	.	16d/	.	16d/	.	.	.	.	.	.	.	.	.	.	.	.	.	.	.	.
8BB-/	.	8b-\J	.	16f/	.	16f/	.	.	.	.	.	.	.	.	.	.	.	.	.	.	.	.
.	.	.	.	16f/JJ	.	16f/JJ	.	.	.	.	.	.	.	.	.	.	.	.	.	.	.	.
!	!	!	!	!LO:LB:g=original	!	!	!	!	!	!	!	!	!	!	!	!	!	!	!	!	!	!
8D\L	.	8b-\L	.	16a-/LL	.	16a-/LL	.	.	.	.	.	.	.	.	.	.	.	.	.	.	.	.
.	.	.	.	16a-/	.	16a-/	.	.	.	.	.	.	.	.	.	.	.	.	.	.	.	.
8F\	.	8b-\	.	16g/	.	16g/	.	.	.	.	.	.	.	.	.	.	.	.	.	.	.	.
.	.	.	.	16g/JJ	.	16g/JJ	.	.	.	.	.	.	.	.	.	.	.	.	.	.	.	.
8A-\	.	8b-\	.	16f/LL	.	16f/LL	.	.	.	.	.	.	.	.	.	.	.	.	.	.	.	.
.	.	.	.	16f/	.	16f/	.	.	.	.	.	.	.	.	.	.	.	.	.	.	.	.
8F\J	.	8b-\J	.	16e-/	.	16e-/	.	.	.	.	.	.	.	.	.	.	.	.	.	.	.	.
.	.	.	.	16e-/JJ	.	16e-/JJ	.	.	.	.	.	.	.	.	.	.	.	.	.	.	.	.
8D\L	.	8b-\L	.	16d/LL	.	16d/LL	.	.	.	.	.	.	.	.	.	.	.	.	.	.	.	.
.	.	.	.	16d/	.	16d/	.	.	.	.	.	.	.	.	.	.	.	.	.	.	.	.
8F\	.	8b-\	.	16c/	.	16c/	.	.	.	.	.	.	.	.	.	.	.	.	.	.	.	.
.	.	.	.	16c/JJ	.	16c/JJ	.	.	.	.	.	.	.	.	.	.	.	.	.	.	.	.
8D\	.	8b-\	.	16d/LL	.	16d/LL	.	.	.	.	.	.	.	.	.	.	.	.	.	.	.	.
.	.	.	.	16d/	.	16d/	.	.	.	.	.	.	.	.	.	.	.	.	.	.	.	.
8BB-\J	.	8b-\J	.	16B-/	.	16B-/	.	.	.	.	.	.	.	.	.	.	.	.	.	.	.	.
.	.	.	.	16B-/JJ	.	16B-/JJ	.	.	.	.	.	.	.	.	.	.	.	.	.	.	.	.
=39	=39	=39	=39	=39	=39	=39	=39	=39	=39	=39	=39	=39	=39	=39	=39	=39	=39	=39	=39	=39	=39	=39
8E-\L	.	8B-/L	.	8r	p	8r	.	1.ryy	1.ryy	.	.	.	.	.	1.e-	p	1.g	p	1.b-	p	1.gg	p
!	!	!	!	!	!	!	!LO:DY:a:t=p&colon;	!	!	!	!	!	!	!	!	!	!	!	!	!	!	!
8e-\J	.	8B-/	.	16e-/LL	.	16e-/LL	p	.	.	.	.	.	.	.	.	.	.	.	.	.	.	.
.	.	.	.	16e-/JJ	.	16e-/JJ	.	.	.	.	.	.	.	.	.	.	.	.	.	.	.	.
8r	.	8B-/	.	16g/LL	.	16g/LL	.	.	.	.	.	.	.	.	.	.	.	.	.	.	.	.
.	.	.	.	16g/	.	16g/	.	.	.	.	.	.	.	.	.	.	.	.	.	.	.	.
8E-\	.	8B-/J	.	16b-/	.	16b-/	.	.	.	.	.	.	.	.	.	.	.	.	.	.	.	.
.	.	.	.	16b-/JJ	.	16b-/JJ	.	.	.	.	.	.	.	.	.	.	.	.	.	.	.	.
8G\L	.	8B-/L	.	16ee-\LL	.	16ee-\LL	.	.	.	.	.	.	.	.	.	.	.	.	.	.	.	.
.	.	.	.	16ee-\	.	16ee-\	.	.	.	.	.	.	.	.	.	.	.	.	.	.	.	.
8B-\	.	8B-/	.	16b-\	.	16b-\	.	.	.	.	.	.	.	.	.	.	.	.	.	.	.	.
.	.	.	.	16b-\JJ	.	16b-\JJ	.	.	.	.	.	.	.	.	.	.	.	.	.	.	.	.
8e-\	.	8B-/	.	16g/LL	.	16g/LL	.	.	.	.	.	.	.	.	.	.	.	.	.	.	.	.
.	.	.	.	16g/	.	16g/	.	.	.	.	.	.	.	.	.	.	.	.	.	.	.	.
8B-\J	.	8B-/J	.	16f/	.	16f/	.	.	.	.	.	.	.	.	.	.	.	.	.	.	.	.
.	.	.	.	16f/JJ	.	16f/JJ	.	.	.	.	.	.	.	.	.	.	.	.	.	.	.	.
8G\L	.	8B-/L	.	16g/LL	.	16g/LL	.	.	.	.	.	.	.	.	.	.	.	.	.	.	.	.
.	.	.	.	16g/	.	16g/	.	.	.	.	.	.	.	.	.	.	.	.	.	.	.	.
8B-\	.	8B-/	.	16b-/	.	16b-/	.	.	.	.	.	.	.	.	.	.	.	.	.	.	.	.
.	.	.	.	16b-/JJ	.	16b-/JJ	.	.	.	.	.	.	.	.	.	.	.	.	.	.	.	.
8G\	.	8B-/	.	16g/LL	.	16g/LL	.	.	.	.	.	.	.	.	.	.	.	.	.	.	.	.
.	.	.	.	16g/	.	16g/	.	.	.	.	.	.	.	.	.	.	.	.	.	.	.	.
8E-\J	.	8B-/J	.	16e-/	.	16e-/	.	.	.	.	.	.	.	.	.	.	.	.	.	.	.	.
.	.	.	.	16e-/JJ	.	16e-/JJ	.	.	.	.	.	.	.	.	.	.	.	.	.	.	.	.
=40	=40	=40	=40	=40	=40	=40	=40	=40	=40	=40	=40	=40	=40	=40	=40	=40	=40	=40	=40	=40	=40	=40
!LO:TX:t=P:problem:mixed beam	!	!	!	!	!	!	!	!	!	!	!	!	!	!	!	!	!	!	!	!	!	!
8B-\L	.	8B-/L	.	8r	.	8r	.	1.ryy	1.ryy	.	.	.	.	.	1.B-	.	1.f	.	1.a-	.	1.ff	.
8BB-/J	.	8B-/	.	16B-/LL	.	16B-/LL	.	.	.	.	.	.	.	.	.	.	.	.	.	.	.	.
.	.	.	.	16B-/JJ	.	16B-/JJ	.	.	.	.	.	.	.	.	.	.	.	.	.	.	.	.
8r	.	8B-/	.	16d/LL	.	16d/LL	.	.	.	.	.	.	.	.	.	.	.	.	.	.	.	.
.	.	.	.	16d/	.	16d/	.	.	.	.	.	.	.	.	.	.	.	.	.	.	.	.
8BB-/	.	8B-/J	.	16f/	.	16f/	.	.	.	.	.	.	.	.	.	.	.	.	.	.	.	.
.	.	.	.	16f/JJ	.	16f/JJ	.	.	.	.	.	.	.	.	.	.	.	.	.	.	.	.
!	!	!	!	!	!	!LO:LB:g=original	!	!	!	!	!	!	!	!	!	!	!	!	!	!	!	!
8D\L	.	8B-/L	.	16a-/LL	.	16a-/LL	.	.	.	.	.	.	.	.	.	.	.	.	.	.	.	.
.	.	.	.	16a-/	.	16a-/	.	.	.	.	.	.	.	.	.	.	.	.	.	.	.	.
8F\	.	8B-/	.	16g/	.	16g/	.	.	.	.	.	.	.	.	.	.	.	.	.	.	.	.
.	.	.	.	16g/JJ	.	16g/JJ	.	.	.	.	.	.	.	.	.	.	.	.	.	.	.	.
8A-\	.	8B-/	.	16f/LL	.	16f/LL	.	.	.	.	.	.	.	.	.	.	.	.	.	.	.	.
.	.	.	.	16f/	.	16f/	.	.	.	.	.	.	.	.	.	.	.	.	.	.	.	.
8F\J	.	8B-/J	.	16e-/	.	16e-/	.	.	.	.	.	.	.	.	.	.	.	.	.	.	.	.
.	.	.	.	16e-/JJ	.	16e-/JJ	.	.	.	.	.	.	.	.	.	.	.	.	.	.	.	.
!LO:LB:g=original	!	!	!	!	!	!	!	!	!	!	!	!	!	!	!	!	!	!	!	!	!	!
8D\L	.	8B-/L	.	16d/LL	.	16d/LL	.	.	.	.	.	.	.	.	.	.	.	.	.	.	.	.
.	.	.	.	16d/	.	16d/	.	.	.	.	.	.	.	.	.	.	.	.	.	.	.	.
8F\	.	8B-/	.	16c/	.	16c/	.	.	.	.	.	.	.	.	.	.	.	.	.	.	.	.
.	.	.	.	16c/JJ	.	16c/JJ	.	.	.	.	.	.	.	.	.	.	.	.	.	.	.	.
8D\	.	8B-/	.	16d/LL	.	16d/LL	.	.	.	.	.	.	.	.	.	.	.	.	.	.	.	.
.	.	.	.	16d/	.	16d/	.	.	.	.	.	.	.	.	.	.	.	.	.	.	.	.
8BB-\J	.	8B-/J	.	16B-/	.	16B-/	.	.	.	.	.	.	.	.	.	.	.	.	.	.	.	.
.	.	.	.	16B-/JJ	.	16B-/JJ	.	.	.	.	.	.	.	.	.	.	.	.	.	.	.	.
*	*	*Xtremolo	*	*	*	*	*	*	*	*	*	*	*	*	*	*	*	*	*	*	*	*
!	!	!	!	!LO:LB:g=original	!	!	!	!	!	!	!	!	!	!	!	!	!	!	!	!	!	!
=41	=41	=41	=41	=41	=41	=41	=41	=41	=41	=41	=41	=41	=41	=41	=41	=41	=41	=41	=41	=41	=41	=41
!	!	!	!	!	!	!	!	!	!	!	!	!	!	!	!	!LO:DY:rj	!	!	!	!	!	!
2E-\	f	8B-/L	f	8r	f	8r	.	1.ryy	1.ryy	.	.	.	.	.	2E-/	f	2e-\	f	2g/	.	2ee-\	.
!	!	!	!	!	!	!	!LO:DY:a:t=f&colon;	!	!	!	!	!	!	!	!	!	!	!	!	!	!	!
.	.	8E-/	.	16e-/LL	.	16e-/LL	f	.	.	.	.	.	.	.	.	.	.	.	.	.	.	.
.	.	.	.	16e-/JJ	.	16e-/JJ	.	.	.	.	.	.	.	.	.	.	.	.	.	.	.	.
.	.	8A-/	.	16g/LL	.	16g/LL	.	.	.	.	.	.	.	.	.	.	.	.	.	.	.	.
.	.	.	.	16g/	.	16g/	.	.	.	.	.	.	.	.	.	.	.	.	.	.	.	.
.	.	8c/J	.	16b-/	.	16b-/	.	.	.	.	.	.	.	.	.	.	.	.	.	.	.	.
.	.	.	.	16b-/JJ	.	16b-/JJ	.	.	.	.	.	.	.	.	.	.	.	.	.	.	.	.
2EE-/	.	8e-\L	.	16ee-\LL	.	16ee-\LL	.	.	.	.	.	.	.	.	2r	.	2r	.	2r	.	2r	.
.	.	.	.	16ee-\	.	16ee-\	.	.	.	.	.	.	.	.	.	.	.	.	.	.	.	.
.	.	8d-X\	.	16dd-X\	.	16dd-X\	.	.	.	.	.	.	.	.	.	.	.	.	.	.	.	.
.	.	.	.	16dd-\JJ	.	16dd-\JJ	.	.	.	.	.	.	.	.	.	.	.	.	.	.	.	.
.	.	8B-\	.	16b-\LL	.	16b-\LL	.	.	.	.	.	.	.	.	.	.	.	.	.	.	.	.
.	.	.	.	16b-\	.	16b-\	.	.	.	.	.	.	.	.	.	.	.	.	.	.	.	.
.	.	8d-\J	.	16dd-X\	.	16dd-X\	.	.	.	.	.	.	.	.	.	.	.	.	.	.	.	.
.	.	.	.	16dd-\JJ	.	16dd-\JJ	.	.	.	.	.	.	.	.	.	.	.	.	.	.	.	.
2r	.	8B-\L	.	16b-\LL	.	16b-\LL	.	.	.	.	.	.	.	.	2r	.	2r	.	2r	.	2r	.
.	.	.	.	16b-\	.	16b-\	.	.	.	.	.	.	.	.	.	.	.	.	.	.	.	.
.	.	8d-X\	.	16dd-\	.	16dd-\	.	.	.	.	.	.	.	.	.	.	.	.	.	.	.	.
.	.	.	.	16dd-\JJ	.	16dd-\JJ	.	.	.	.	.	.	.	.	.	.	.	.	.	.	.	.
.	.	8c\	.	16cc\LL	.	16cc\LL	.	.	.	.	.	.	.	.	.	.	.	.	.	.	.	.
.	.	.	.	16cc\	.	16cc\	.	.	.	.	.	.	.	.	.	.	.	.	.	.	.	.
.	.	8Bn\J	.	16bn\	.	16bn\	.	.	.	.	.	.	.	.	.	.	.	.	.	.	.	.
.	.	.	.	16b\JJ	.	16b\JJ	.	.	.	.	.	.	.	.	.	.	.	.	.	.	.	.
!	!	!LO:LB:g=original	!	!	!	!	!	!	!	!	!	!	!	!	!	!	!	!	!	!	!LO:LB:g=original	!
=42	=42	=42	=42	=42	=42	=42	=42	=42	=42	=42	=42	=42	=42	=42	=42	=42	=42	=42	=42	=42	=42	=42
8r	.	8c\L	.	8r	.	8r	.	1.ryy	1.ryy	00.r	.	00.r	.	.	2e-\	.	2a-\	.	2a-/	.	2cc\	.
8A-\	.	8e-\J	.	8a-/	.	8cc\L	.	.	.	.	.	.	.	.	.	.	.	.	.	.	.	.
4A-\	.	4e-\	.	4a-/	.	8bn\	.	.	.	.	.	.	.	.	.	.	.	.	.	.	.	.
.	.	.	.	.	.	8cc\J	.	.	.	.	.	.	.	.	.	.	.	.	.	.	.	.
4A-\	.	4e-\	.	4a-/	.	8b\L	.	.	.	.	.	.	.	.	4r	.	4r	.	4r	.	4r	.
.	.	.	.	.	.	8cc\	.	.	.	.	.	.	.	.	.	.	.	.	.	.	.	.
4A-\	.	4e-\	.	4a-/	.	8b\	.	.	.	.	.	.	.	.	4e-\	.	4a-\	.	4a-/	.	4cc\	.
.	.	.	.	.	.	8cc\J	.	.	.	.	.	.	.	.	.	.	.	.	.	.	.	.
4A-\	.	4e-\	.	4a-/	.	8b\L	.	.	.	.	.	.	.	.	4e-\	.	4a-\	.	4a-/	.	4cc\	.
.	.	.	.	.	.	8cc\	.	.	.	.	.	.	.	.	.	.	.	.	.	.	.	.
4A-\	.	4e-\	.	4a-/	.	8b\	.	.	.	.	.	.	.	.	4e-\	.	4a-\	.	4a-/	.	4cc\	.
.	.	.	.	.	.	8cc\J	.	.	.	.	.	.	.	.	.	.	.	.	.	.	.	.
=43	=43	=43	=43	=43	=43	=43	=43	=43	=43	=43	=43	=43	=43	=43	=43	=43	=43	=43	=43	=43	=43	=43
4r	.	4r	.	4r	.	8r	.	1.ryy	1.ryy	.	.	.	.	.	2f\	.	2a-\	.	2a-/	.	2dd\	.
.	.	.	.	.	.	8dd\L	.	.	.	.	.	.	.	.	.	.	.	.	.	.	.	.
4B-\	.	4f\	.	4a-/	.	8cc\	.	.	.	.	.	.	.	.	.	.	.	.	.	.	.	.
.	.	.	.	.	.	8dd\J	.	.	.	.	.	.	.	.	.	.	.	.	.	.	.	.
!	!	!	!	!	!	!LO:LB:g=original	!	!	!	!	!	!	!	!	!	!	!	!	!	!	!	!
4B-\	.	4f\	.	4a-/	.	8cc\L	.	.	.	.	.	.	.	.	4r	.	4r	.	4r	.	4r	.
.	.	.	.	.	.	8dd\	.	.	.	.	.	.	.	.	.	.	.	.	.	.	.	.
4B-\	.	4f\	.	4a-/	.	8cc\	.	.	.	.	.	.	.	.	4f\	.	4a-\	.	4a-/	.	4dd\	.
.	.	.	.	.	.	8dd\J	.	.	.	.	.	.	.	.	.	.	.	.	.	.	.	.
4B-\	.	4f\	.	4a-/	.	8cc\L	.	.	.	.	.	.	.	.	4f\	.	4a-\	.	4a-/	.	4dd\	.
.	.	.	.	.	.	8dd\	.	.	.	.	.	.	.	.	.	.	.	.	.	.	.	.
4B-\	.	4f\	.	4a-/	.	8cc\	.	.	.	.	.	.	.	.	4f\	.	4a-\	.	4a-/	.	4dd\	.
.	.	.	.	.	.	8dd\J	.	.	.	.	.	.	.	.	.	.	.	.	.	.	.	.
=44	=44	=44	=44	=44	=44	=44	=44	=44	=44	=44	=44	=44	=44	=44	=44	=44	=44	=44	=44	=44	=44	=44
4c\	.	4e-\	.	4g/	.	8ee-\L	.	1.ryy	1.ryy	.	.	.	.	.	4e-\	.	4g\	.	4g/	.	4ee-\	.
.	.	.	.	.	.	8b-X\	.	.	.	.	.	.	.	.	.	.	.	.	.	.	.	.
4A-\	.	4a-\	.	8a-/L	.	8cc\	.	.	.	.	.	.	.	.	4f\	.	4a-\	.	4ff\	.	4aa-\	.
.	.	.	.	8f/J	.	8a-\J	.	.	.	.	.	.	.	.	.	.	.	.	.	.	.	.
!	!	!	!	!	!	!	!	!	!	!	!	!	!	!	!LO:LB:g=original	!	!	!	!LO:LB:g=original	!	!	!
2B-\	.	2b-\	.	2e-/	.	2g/	.	.	.	.	.	.	.	.	2e-\	.	2g\	.	2ee-\	.	2gg\	.
2BB-/	.	2b-\	.	2B-/	.	2f/	.	.	.	.	.	.	.	.	2B-/	.	2f\	.	2b-\	.	2ff\	.
=45	=45	=45	=45	=45	=45	=45	=45	=45	=45	=45	=45	=45	=45	=45	=45	=45	=45	=45	=45	=45	=45	=45
2E-\	.	2b-\	.	2G/	.	2e-/	.	1.ryy	1.ryy	.	.	.	.	.	2G/	.	2e-\	.	2g/	.	2ee-\	.
2BB-/	.	2b-\	.	2G/	.	2e-/	.	.	.	.	.	.	.	.	2G/	.	2e-\	.	2g/	.	2ee-\	.
2GG/	.	2b-\	.	2G/	.	2e-/	.	.	.	.	.	.	.	.	2G/	.	2e-\	.	2g/	.	2ee-\	.
=46	=46	=46	=46	=46	=46	=46	=46	=46	=46	=46	=46	=46	=46	=46	=46	=46	=46	=46	=46	=46	=46	=46
1EE-	.	1b-	.	1G	.	1e-	.	1.ryy	1.ryy	1.r	.	1.r	.	.	1G	.	1e-	.	1g	.	1ee-	.
8F\L	.	8f\L	.	4r	.	4r	.	.	.	.	.	.	.	.	2r	.	2r	.	4r	.	4r	.
8E-\	.	8e-\	.	.	.	.	.	.	.	.	.	.	.	.	.	.	.	.	.	.	.	.
!	!	!	!	!LO:TX:a:i:t=Da\nCapo	!	!	!	!	!	!	!	!	!	!	!	!	!	!	!	!	!	!
8D\	.	8d\	.	4f/	.	4f/	.	.	.	.	.	.	.	.	.	.	.	.	4f/	.	4f/	.
!LO:TX:a:i:t=Da Capo.	!	!LO:TX:a:i:t=Da Capo	!	!	!	!LO:TX:a:i:t=Da Capo del Segno fasque ad Finis:rj	!	!	!	!LO:TX:a:i:t=Aria Da Capo.:rj	!	!LO:TX:a:rj:i:t=Aria\nDa Capo	!	!LO:TX:a:i:t=Da Capo usq Finis:rj	!	!	!LO:TX:a:i:t=Da Capo:rj	!	!LO:TX:a:i:t=Da Capo Del Sigl:rj	!	!	!LO:TX:a:i:t=Da Capo:rj
8C\J	.	8c\J	.	.	.	.	.	.	.	.	.	.	.	.	.	.	.	.	.	.	.	.
==	==	==	==	==	==	==	==	==	==	==	==	==	==	==	==	==	==	==	==	==	==	==
*-	*-	*-	*-	*-	*-	*-	*-	*-	*-	*-	*-	*-	*-	*-	*-	*-	*-	*-	*-	*-	*-	*-
!!!system-decoration: [(g1)][(g2)][(g3)][(g4)]<s12>
!!!RDF**kern: | = vertical stroke
!!!ENC: Marcin Jachim
!!!END: 2020-10-31
!!!ENC: Andrzej Kubiczek
!!!END: 2022-04-14
!!!YEC: Copyright 2022 Narodowy Instytut Fryderyka Chopina (https://polishscores.org)
!!!YEM: Licence CC BY 4.0 (https://creativecommons.org/licenses/by/4.0)
